assets/icons/pc_specs/keyboard.svg

<svg xmlns="http://www.w3.org/2000/svg" fill="none" viewBox="0 0 32 32"><path fill="#2B398F" d="M30.125 12.5625H18.7668c1.0998-1.132 2.1707-2.812 2.1707-5.0625 0-2.2153.5134-2.9101.9607-3.268.6869-.5494 1.9519-.7945 4.1018-.7945a.9376.9376 0 0 0 0-1.875c-2.6752 0-4.2029.3493-5.2732 1.2054-1.4751 1.1802-1.6643 3.1489-1.6643 4.7321 0 2.9114-2.5952 4.6431-3.3059 5.0625H1.875c-1.0339 0-1.875.8411-1.875 1.875v14.125c0 1.0339.8411 1.875 1.875 1.875h28.25c1.0339 0 1.875-.8411 1.875-1.875v-14.125c0-1.0339-.8411-1.875-1.875-1.875Zm0 16H1.875v-14.125h28.25c.0012 14.4466.0063 14.125 0 14.125Z"/><path fill="#3749BB" d="M30.125 12.5625H18.7668c1.0998-1.132 2.1707-2.812 2.1707-5.0625 0-2.2153.5134-2.9101.9607-3.268.6869-.5494 1.9519-.7945 4.1018-.7945a.9376.9376 0 0 0 0-1.875c-2.6752 0-4.2029.3493-5.2732 1.2054-1.4751 1.1802-1.6643 3.1489-1.6643 4.7321 0 2.9114-2.5952 4.6431-3.3059 5.0625H1.875c-1.0339 0-1.875.8411-1.875 1.875v14.125c0 1.0339.8411 1.875 1.875 1.875h28.25c1.0339 0 1.875-.8411 1.875-1.875v-14.125c0-1.0339-.8411-1.875-1.875-1.875Zm0 16H1.875v-14.125h28.25c.0012 14.4466.0063 14.125 0 14.125Z"/><path fill="#2B398F" d="M6 24.5625H5a.9376.9376 0 0 0 0 1.875h1a.9376.9376 0 0 0 0-1.875Z"/><path fill="#3749BB" d="M6 24.5625H5a.9376.9376 0 0 0 0 1.875h1a.9376.9376 0 0 0 0-1.875Z"/><path fill="#2B398F" d="M9.4375 21.5a.9376.9376 0 0 0-.9375-.9375h-1a.9376.9376 0 0 0 0 1.875h1a.9376.9376 0 0 0 .9375-.9375Z"/><path fill="#3749BB" d="M9.4375 21.5a.9376.9376 0 0 0-.9375-.9375h-1a.9376.9376 0 0 0 0 1.875h1a.9376.9376 0 0 0 .9375-.9375Z"/><path fill="#2B398F" d="M11.5625 21.5c0 .5177.4198.9375.9375.9375h1a.9376.9376 0 0 0 0-1.875h-1a.9376.9376 0 0 0-.9375.9375Z"/><path fill="#3749BB" d="M11.5625 21.5c0 .5177.4198.9375.9375.9375h1a.9376.9376 0 0 0 0-1.875h-1a.9376.9376 0 0 0-.9375.9375Z"/><path fill="#2B398F" d="M16.5625 21.5c0 .5177.4198.9375.9375.9375h1a.9376.9376 0 0 0 0-1.875h-1a.9376.9376 0 0 0-.9375.9375Z"/><path fill="#3749BB" d="M16.5625 21.5c0 .5177.4198.9375.9375.9375h1a.9376.9376 0 0 0 0-1.875h-1a.9376.9376 0 0 0-.9375.9375Z"/><path fill="#2B398F" d="M23.5 20.5625h-1a.9376.9376 0 0 0 0 1.875h1a.9376.9376 0 0 0 0-1.875Z"/><path fill="#3749BB" d="M23.5 20.5625h-1a.9376.9376 0 0 0 0 1.875h1a.9376.9376 0 0 0 0-1.875Z"/><path fill="#2B398F" d="M26.9375 17.5A.9376.9376 0 0 0 26 16.5625h-1a.9376.9376 0 0 0 0 1.875h1a.9376.9376 0 0 0 .9375-.9375Z"/><path fill="#3749BB" d="M26.9375 17.5A.9376.9376 0 0 0 26 16.5625h-1a.9376.9376 0 0 0 0 1.875h1a.9376.9376 0 0 0 .9375-.9375Z"/><path fill="#2B398F" d="M20 18.4375h1a.9376.9376 0 0 0 0-1.875h-1a.9376.9376 0 0 0 0 1.875Z"/><path fill="#3749BB" d="M20 18.4375h1a.9376.9376 0 0 0 0-1.875h-1a.9376.9376 0 0 0 0 1.875Z"/><path fill="#2B398F" d="M15 18.4375h1a.9376.9376 0 0 0 0-1.875h-1a.9376.9376 0 0 0 0 1.875Z"/><path fill="#3749BB" d="M15 18.4375h1a.9376.9376 0 0 0 0-1.875h-1a.9376.9376 0 0 0 0 1.875Z"/><path fill="#2B398F" d="M10 18.4375h1a.9376.9376 0 0 0 0-1.875h-1a.9376.9376 0 0 0 0 1.875Z"/><path fill="#3749BB" d="M10 18.4375h1a.9376.9376 0 0 0 0-1.875h-1a.9376.9376 0 0 0 0 1.875Z"/><path fill="#2B398F" d="M5 18.4375h1a.9376.9376 0 0 0 0-1.875H5a.9376.9376 0 0 0 0 1.875Z"/><path fill="#3749BB" d="M5 18.4375h1a.9376.9376 0 0 0 0-1.875H5a.9376.9376 0 0 0 0 1.875Z"/><path fill="#2B398F" d="M27 24.5625h-1a.9376.9376 0 0 0 0 1.875h1a.9376.9376 0 0 0 0-1.875Z"/><path fill="#3749BB" d="M27 24.5625h-1a.9376.9376 0 0 0 0 1.875h1a.9376.9376 0 0 0 0-1.875Z"/><path fill="#2B398F" d="M22 24.5625H10a.9376.9376 0 0 0 0 1.875h12a.9376.9376 0 0 0 0-1.875Z"/><path fill="#3749BB" d="M22 24.5625H10a.9376.9376 0 0 0 0 1.875h12a.9376.9376 0 0 0 0-1.875Z"/></svg>

<svg width="32" height="32" viewBox="0 0 32 32" fill="none" xmlns="http://www.w3.org/2000/svg">
<path d="M30.125 12.5625H18.7668C19.8666 11.4305 20.9375 9.75056 20.9375 7.5C20.9375 5.28469 21.4509 4.58987 21.8982 4.23206C22.5851 3.68256 23.8501 3.4375 26 3.4375C26.5177 3.4375 26.9375 3.01775 26.9375 2.5C26.9375 1.98225 26.5177 1.5625 26 1.5625C23.3248 1.5625 21.7971 1.91175 20.7268 2.76794C19.2517 3.94806 19.0625 5.91675 19.0625 7.5C19.0625 10.4114 16.4673 12.1431 15.7566 12.5625H1.875C0.841125 12.5625 0 13.4036 0 14.4375V28.5625C0 29.5964 0.841125 30.4375 1.875 30.4375H30.125C31.1589 30.4375 32 29.5964 32 28.5625V14.4375C32 13.4036 31.1589 12.5625 30.125 12.5625ZM30.125 28.5625H1.875V14.4375H30.125C30.1262 28.8841 30.1313 28.5625 30.125 28.5625Z" fill="#2B398F"/>
<path d="M30.125 12.5625H18.7668C19.8666 11.4305 20.9375 9.75056 20.9375 7.5C20.9375 5.28469 21.4509 4.58987 21.8982 4.23206C22.5851 3.68256 23.8501 3.4375 26 3.4375C26.5177 3.4375 26.9375 3.01775 26.9375 2.5C26.9375 1.98225 26.5177 1.5625 26 1.5625C23.3248 1.5625 21.7971 1.91175 20.7268 2.76794C19.2517 3.94806 19.0625 5.91675 19.0625 7.5C19.0625 10.4114 16.4673 12.1431 15.7566 12.5625H1.875C0.841125 12.5625 0 13.4036 0 14.4375V28.5625C0 29.5964 0.841125 30.4375 1.875 30.4375H30.125C31.1589 30.4375 32 29.5964 32 28.5625V14.4375C32 13.4036 31.1589 12.5625 30.125 12.5625ZM30.125 28.5625H1.875V14.4375H30.125C30.1262 28.8841 30.1313 28.5625 30.125 28.5625Z" fill="#3749BB"/>
<path d="M6 24.5625H5C4.48225 24.5625 4.0625 24.9823 4.0625 25.5C4.0625 26.0177 4.48225 26.4375 5 26.4375H6C6.51775 26.4375 6.9375 26.0177 6.9375 25.5C6.9375 24.9823 6.51775 24.5625 6 24.5625Z" fill="#2B398F"/>
<path d="M6 24.5625H5C4.48225 24.5625 4.0625 24.9823 4.0625 25.5C4.0625 26.0177 4.48225 26.4375 5 26.4375H6C6.51775 26.4375 6.9375 26.0177 6.9375 25.5C6.9375 24.9823 6.51775 24.5625 6 24.5625Z" fill="#3749BB"/>
<path d="M9.4375 21.5C9.4375 20.9823 9.01775 20.5625 8.5 20.5625H7.5C6.98225 20.5625 6.5625 20.9823 6.5625 21.5C6.5625 22.0177 6.98225 22.4375 7.5 22.4375H8.5C9.01775 22.4375 9.4375 22.0177 9.4375 21.5Z" fill="#2B398F"/>
<path d="M9.4375 21.5C9.4375 20.9823 9.01775 20.5625 8.5 20.5625H7.5C6.98225 20.5625 6.5625 20.9823 6.5625 21.5C6.5625 22.0177 6.98225 22.4375 7.5 22.4375H8.5C9.01775 22.4375 9.4375 22.0177 9.4375 21.5Z" fill="#3749BB"/>
<path d="M11.5625 21.5C11.5625 22.0177 11.9823 22.4375 12.5 22.4375H13.5C14.0177 22.4375 14.4375 22.0177 14.4375 21.5C14.4375 20.9823 14.0177 20.5625 13.5 20.5625H12.5C11.9823 20.5625 11.5625 20.9823 11.5625 21.5Z" fill="#2B398F"/>
<path d="M11.5625 21.5C11.5625 22.0177 11.9823 22.4375 12.5 22.4375H13.5C14.0177 22.4375 14.4375 22.0177 14.4375 21.5C14.4375 20.9823 14.0177 20.5625 13.5 20.5625H12.5C11.9823 20.5625 11.5625 20.9823 11.5625 21.5Z" fill="#3749BB"/>
<path d="M16.5625 21.5C16.5625 22.0177 16.9823 22.4375 17.5 22.4375H18.5C19.0177 22.4375 19.4375 22.0177 19.4375 21.5C19.4375 20.9823 19.0177 20.5625 18.5 20.5625H17.5C16.9823 20.5625 16.5625 20.9823 16.5625 21.5Z" fill="#2B398F"/>
<path d="M16.5625 21.5C16.5625 22.0177 16.9823 22.4375 17.5 22.4375H18.5C19.0177 22.4375 19.4375 22.0177 19.4375 21.5C19.4375 20.9823 19.0177 20.5625 18.5 20.5625H17.5C16.9823 20.5625 16.5625 20.9823 16.5625 21.5Z" fill="#3749BB"/>
<path d="M23.5 20.5625H22.5C21.9823 20.5625 21.5625 20.9823 21.5625 21.5C21.5625 22.0177 21.9823 22.4375 22.5 22.4375H23.5C24.0177 22.4375 24.4375 22.0177 24.4375 21.5C24.4375 20.9823 24.0177 20.5625 23.5 20.5625Z" fill="#2B398F"/>
<path d="M23.5 20.5625H22.5C21.9823 20.5625 21.5625 20.9823 21.5625 21.5C21.5625 22.0177 21.9823 22.4375 22.5 22.4375H23.5C24.0177 22.4375 24.4375 22.0177 24.4375 21.5C24.4375 20.9823 24.0177 20.5625 23.5 20.5625Z" fill="#3749BB"/>
<path d="M26.9375 17.5C26.9375 16.9823 26.5177 16.5625 26 16.5625H25C24.4823 16.5625 24.0625 16.9823 24.0625 17.5C24.0625 18.0177 24.4823 18.4375 25 18.4375H26C26.5177 18.4375 26.9375 18.0177 26.9375 17.5Z" fill="#2B398F"/>
<path d="M26.9375 17.5C26.9375 16.9823 26.5177 16.5625 26 16.5625H25C24.4823 16.5625 24.0625 16.9823 24.0625 17.5C24.0625 18.0177 24.4823 18.4375 25 18.4375H26C26.5177 18.4375 26.9375 18.0177 26.9375 17.5Z" fill="#3749BB"/>
<path d="M20 18.4375H21C21.5177 18.4375 21.9375 18.0177 21.9375 17.5C21.9375 16.9823 21.5177 16.5625 21 16.5625H20C19.4823 16.5625 19.0625 16.9823 19.0625 17.5C19.0625 18.0177 19.4823 18.4375 20 18.4375Z" fill="#2B398F"/>
<path d="M20 18.4375H21C21.5177 18.4375 21.9375 18.0177 21.9375 17.5C21.9375 16.9823 21.5177 16.5625 21 16.5625H20C19.4823 16.5625 19.0625 16.9823 19.0625 17.5C19.0625 18.0177 19.4823 18.4375 20 18.4375Z" fill="#3749BB"/>
<path d="M15 18.4375H16C16.5177 18.4375 16.9375 18.0177 16.9375 17.5C16.9375 16.9823 16.5177 16.5625 16 16.5625H15C14.4823 16.5625 14.0625 16.9823 14.0625 17.5C14.0625 18.0177 14.4823 18.4375 15 18.4375Z" fill="#2B398F"/>
<path d="M15 18.4375H16C16.5177 18.4375 16.9375 18.0177 16.9375 17.5C16.9375 16.9823 16.5177 16.5625 16 16.5625H15C14.4823 16.5625 14.0625 16.9823 14.0625 17.5C14.0625 18.0177 14.4823 18.4375 15 18.4375Z" fill="#3749BB"/>
<path d="M10 18.4375H11C11.5177 18.4375 11.9375 18.0177 11.9375 17.5C11.9375 16.9823 11.5177 16.5625 11 16.5625H10C9.48225 16.5625 9.0625 16.9823 9.0625 17.5C9.0625 18.0177 9.48225 18.4375 10 18.4375Z" fill="#2B398F"/>
<path d="M10 18.4375H11C11.5177 18.4375 11.9375 18.0177 11.9375 17.5C11.9375 16.9823 11.5177 16.5625 11 16.5625H10C9.48225 16.5625 9.0625 16.9823 9.0625 17.5C9.0625 18.0177 9.48225 18.4375 10 18.4375Z" fill="#3749BB"/>
<path d="M5 18.4375H6C6.51775 18.4375 6.9375 18.0177 6.9375 17.5C6.9375 16.9823 6.51775 16.5625 6 16.5625H5C4.48225 16.5625 4.0625 16.9823 4.0625 17.5C4.0625 18.0177 4.48225 18.4375 5 18.4375Z" fill="#2B398F"/>
<path d="M5 18.4375H6C6.51775 18.4375 6.9375 18.0177 6.9375 17.5C6.9375 16.9823 6.51775 16.5625 6 16.5625H5C4.48225 16.5625 4.0625 16.9823 4.0625 17.5C4.0625 18.0177 4.48225 18.4375 5 18.4375Z" fill="#3749BB"/>
<path d="M27 24.5625H26C25.4823 24.5625 25.0625 24.9823 25.0625 25.5C25.0625 26.0177 25.4823 26.4375 26 26.4375H27C27.5177 26.4375 27.9375 26.0177 27.9375 25.5C27.9375 24.9823 27.5177 24.5625 27 24.5625Z" fill="#2B398F"/>
<path d="M27 24.5625H26C25.4823 24.5625 25.0625 24.9823 25.0625 25.5C25.0625 26.0177 25.4823 26.4375 26 26.4375H27C27.5177 26.4375 27.9375 26.0177 27.9375 25.5C27.9375 24.9823 27.5177 24.5625 27 24.5625Z" fill="#3749BB"/>
<path d="M22 24.5625H10C9.48225 24.5625 9.0625 24.9823 9.0625 25.5C9.0625 26.0177 9.48225 26.4375 10 26.4375H22C22.5177 26.4375 22.9375 26.0177 22.9375 25.5C22.9375 24.9823 22.5177 24.5625 22 24.5625Z" fill="#2B398F"/>
<path d="M22 24.5625H10C9.48225 24.5625 9.0625 24.9823 9.0625 25.5C9.0625 26.0177 9.48225 26.4375 10 26.4375H22C22.5177 26.4375 22.9375 26.0177 22.9375 25.5C22.9375 24.9823 22.5177 24.5625 22 24.5625Z" fill="#3749BB"/>
</svg>
